src/topics/icons/vue.svg

<svg height="221" preserveAspectRatio="xMidYMid" viewBox="0 0 256 221" width="256" xmlns="http://www.w3.org/2000/svg"><path d="m204.8 0h51.2l-128 220.8-128-220.8h50.56 47.36l30.08 51.2 29.44-51.2z" fill="#41b883"/><path d="m0 0 128 220.8 128-220.8h-51.2l-76.8 132.48-77.44-132.48z" fill="#41b883"/><path d="m50.56 0 77.44 133.12 76.8-133.12h-47.36l-29.44 51.2-30.08-51.2z" fill="#35495e"/></svg>

<?xml version="1.0" encoding="UTF-8" standalone="no"?>
<svg width="256px" height="221px" viewBox="0 0 256 221" version="1.1" xmlns="http://www.w3.org/2000/svg" xmlns:xlink="http://www.w3.org/1999/xlink" preserveAspectRatio="xMidYMid">
	<g>
		<path d="M204.8,0 L256,0 L128,220.8 L0,0 L50.56,0 L97.92,0 L128,51.2 L157.44,0 L204.8,0 Z" fill="#41B883"></path>
		<path d="M0,0 L128,220.8 L256,0 L204.8,0 L128,132.48 L50.56,0 L0,0 Z" fill="#41B883"></path>
		<path d="M50.56,0 L128,133.12 L204.8,0 L157.44,0 L128,51.2 L97.92,0 L50.56,0 Z" fill="#35495E"></path>
	</g>
</svg>
